X:1105
T:Old Father Christmas
A:Wyresdale, Lancashire
B:E and J Winder, 1835-41
L:1/8
M:6/8
O:England
Z:Richard Robinson 
%%TUNEURL: http://www.leeds.ac.uk/music/Info/RRTuneBk/gettune/00001151.html
%%ID:00001151
K:G
d | G3  A3  | BFG c^GA | d2b c2a | B2g fed | G3  A3  | BFG c^GA | d2b e2c' | d'3 d'2 ||
d | d2b d2b | c2a c2a  | c2a fed | d'3 b2z | d2b d2b | c2a c2a  | c2a fed  | g3 g2 ||
d | G3  A3  | BFG c^GA | d2b c2a | B2g fed | G3  A3  | BFG c^GA | d2b c2f  | g3 g3 |]
